Simply-Orange-Circles/scalable/apps/preferences-desktop-locale.svg

<?xml version="1.0" encoding="UTF-8" standalone="no"?>
<svg
   xmlns:dc="http://purl.org/dc/elements/1.1/"
   xmlns:cc="http://creativecommons.org/ns#"
   xmlns:rdf="http://www.w3.org/1999/02/22-rdf-syntax-ns#"
   xmlns:svg="http://www.w3.org/2000/svg"
   xmlns="http://www.w3.org/2000/svg"
   xmlns:sodipodi="http://sodipodi.sourceforge.net/DTD/sodipodi-0.dtd"
   xmlns:inkscape="http://www.inkscape.org/namespaces/inkscape"
   width="48"
   height="48"
   viewBox="0 0 12.7 12.7"
   version="1.1"
   id="svg4"
   sodipodi:docname="preferences-desktop-locale.svg"
   inkscape:version="0.92.4 (5da689c313, 2019-01-14)">
  <metadata
     id="metadata10">
    <rdf:RDF>
      <cc:Work
         rdf:about="">
        <dc:format>image/svg+xml</dc:format>
        <dc:type
           rdf:resource="http://purl.org/dc/dcmitype/StillImage" />
        <dc:title></dc:title>
      </cc:Work>
    </rdf:RDF>
  </metadata>
  <defs
     id="defs8" />
  <sodipodi:namedview
     pagecolor="#ffffff"
     bordercolor="#666666"
     borderopacity="1"
     objecttolerance="10"
     gridtolerance="10"
     guidetolerance="10"
     inkscape:pageopacity="0"
     inkscape:pageshadow="2"
     inkscape:window-width="1087"
     inkscape:window-height="480"
     id="namedview6"
     showgrid="false"
     inkscape:zoom="4.9166667"
     inkscape:cx="2.1355932"
     inkscape:cy="24"
     inkscape:window-x="0"
     inkscape:window-y="25"
     inkscape:window-maximized="0"
     inkscape:current-layer="svg4" />
  <path
     d="m 6.344,0.073 a 6.29,6.29 0 0 0 -6.29,6.29 6.29,6.29 0 0 0 6.29,6.288 6.29,6.29 0 0 0 6.29,-6.289 6.29,6.29 0 0 0 -6.29,-6.29 z M 6.326,1.009 A 5.407,5.407 0 0 1 11.733,6.416 5.407,5.407 0 0 1 6.326,11.823 5.407,5.407 0 0 1 0.92,6.416 5.407,5.407 0 0 1 6.326,1.01 Z m 0.023,0.314 c -0.158,0 -0.315,0.015 -0.47,0.021 L 5.587,2.848 A 3.6,3.6 0 0 0 4.891,3.072 L 3.791,2.019 C 3.512,2.184 3.27,2.389 3.028,2.602 l 0.65,1.37 A 3.632,3.632 0 0 0 3.253,4.555 L 1.749,4.353 A 4.963,4.963 0 0 0 1.457,5.273 L 2.781,5.991 A 3.466,3.466 0 0 0 2.76,6.351 c 0,0.125 0.009,0.238 0.021,0.358 L 1.457,7.427 c 0.07,0.32 0.164,0.627 0.292,0.92 L 3.253,8.146 C 3.375,8.354 3.519,8.55 3.679,8.729 l -0.65,1.37 c 0.24,0.213 0.483,0.417 0.762,0.583 l 1.1,-1.055 c 0.22,0.098 0.455,0.172 0.696,0.224 l 0.292,1.504 a 5.112,5.112 0 0 0 0.942,0 L 7.113,9.851 C 7.353,9.799 7.589,9.725 7.808,9.627 l 1.1,1.056 c 0.28,-0.166 0.523,-0.37 0.763,-0.584 L 9.021,8.729 C 9.181,8.549 9.325,8.354 9.447,8.146 l 1.503,0.201 a 4.963,4.963 0 0 0 0.293,-0.92 L 9.918,6.71 A 3.5,3.5 0 0 0 9.94,6.35 C 9.94,6.227 9.93,6.112 9.918,5.991 L 11.243,5.274 A 4.961,4.961 0 0 0 10.95,4.354 L 9.447,4.555 A 3.632,3.632 0 0 0 9.021,3.971 L 9.671,2.602 A 4.988,4.988 0 0 0 8.909,2.02 L 7.808,3.074 A 3.602,3.602 0 0 0 7.112,2.849 L 6.82,1.346 A 5.112,5.112 0 0 0 6.35,1.324 V 1.323 Z M 6.382,3.32 A 3.026,3.026 0 0 1 9.407,6.345 3.026,3.026 0 0 1 6.382,9.371 3.026,3.026 0 0 1 3.355,6.345 3.026,3.026 0 0 1 6.382,3.32 Z M 6.162,3.538 V 3.542 A 2.812,2.812 0 0 0 3.543,6.161 H 3.538 v 0.375 h 0.005 a 2.812,2.812 0 0 0 2.62,2.618 V 9.159 H 6.538 V 9.154 A 2.81,2.81 0 0 0 9.155,6.536 H 9.162 V 6.161 H 9.155 A 2.81,2.81 0 0 0 6.538,3.542 V 3.538 Z m 0,0.399 v 1.1 H 5.244 C 5.445,4.454 5.777,4.039 6.162,3.937 Z m 0.376,0 c 0.385,0.102 0.717,0.517 0.918,1.1 H 6.538 Z M 5.298,4.151 C 5.118,4.391 4.966,4.693 4.857,5.037 H 4.295 C 4.539,4.656 4.887,4.347 5.298,4.151 Z m 2.104,0 C 7.812,4.348 8.16,4.656 8.404,5.037 H 7.844 A 2.973,2.973 0 0 0 7.402,4.151 Z M 4.099,5.413 h 0.66 C 4.709,5.65 4.677,5.901 4.666,6.163 H 3.92 C 3.94,5.898 4.003,5.646 4.1,5.413 Z m 1.039,0 h 1.024 v 0.75 H 5.041 C 5.051,5.898 5.085,5.646 5.138,5.413 Z m 1.4,0 H 7.56 c 0.053,0.233 0.086,0.485 0.098,0.75 h -1.12 z m 1.404,0 H 8.6 c 0.097,0.233 0.16,0.485 0.18,0.75 H 8.033 A 4.45,4.45 0 0 0 7.941,5.413 Z M 3.919,6.538 h 0.747 c 0.01,0.26 0.042,0.512 0.092,0.75 H 4.1 A 2.416,2.416 0 0 1 3.92,6.538 Z m 1.122,0 h 1.121 v 0.75 H 5.138 A 4.19,4.19 0 0 1 5.041,6.538 Z m 1.497,0 H 7.659 C 7.649,6.802 7.614,7.054 7.561,7.288 H 6.538 Z m 1.496,0 H 8.779 C 8.759,6.802 8.698,7.054 8.601,7.288 H 7.941 C 7.991,7.05 8.023,6.798 8.034,6.538 Z m -3.74,1.125 h 0.563 c 0.109,0.344 0.26,0.646 0.441,0.886 A 2.45,2.45 0 0 1 4.295,7.663 Z m 0.95,0 h 0.918 v 1.1 C 5.777,8.66 5.445,8.246 5.244,7.663 Z m 1.294,0 H 7.456 C 7.255,8.246 6.923,8.66 6.538,8.763 Z m 1.305,0 H 8.404 A 2.45,2.45 0 0 1 7.402,8.549 C 7.582,8.309 7.734,8.007 7.843,7.663 Z"
     id="path2"
     inkscape:connector-curvature="0"
     style="fill:#ff7f2a" />
</svg>

<svg xmlns="http://www.w3.org/2000/svg" width="48" height="48" viewBox="0 0 12.7 12.7"><path fill="#ff7f2a" d="M6.34.07a6.29 6.29 0 0 0-6.29 6.3 6.29 6.29 0 0 0 6.3 6.28 6.29 6.29 0 0 0 6.28-6.29A6.29 6.29 0 0 0 6.34.07zm-.01.94a5.4 5.4 0 0 1 5.4 5.4 5.4 5.4 0 0 1-5.4 5.41 5.4 5.4 0 0 1-5.41-5.4A5.4 5.4 0 0 1 6.32 1zm.02.31l-.47.02-.3 1.5a3.6 3.6 0 0 0-.69.23L3.8 2.02c-.28.16-.52.37-.76.58l.65 1.37a3.63 3.63 0 0 0-.43.59l-1.5-.2a4.96 4.96 0 0 0-.3.91L2.79 6a3.47 3.47 0 0 0-.02.36c0 .13 0 .24.02.36l-1.32.72c.07.32.16.62.29.92l1.5-.2c.13.2.27.4.43.58l-.65 1.37c.24.21.48.42.76.58l1.1-1.05c.22.1.46.17.7.22l.29 1.5a5.11 5.11 0 0 0 .94 0l.3-1.5c.23-.05.47-.12.69-.22l1.1 1.05c.28-.16.52-.37.76-.58l-.65-1.37c.16-.18.3-.38.43-.58l1.5.2a4.96 4.96 0 0 0 .3-.92L9.91 6.7a3.5 3.5 0 0 0 .02-.36l-.02-.36 1.32-.72a4.96 4.96 0 0 0-.29-.92l-1.5.2a3.63 3.63 0 0 0-.43-.58l.65-1.37a4.99 4.99 0 0 0-.76-.58L7.8 3.07a3.6 3.6 0 0 0-.7-.22l-.29-1.5a5.11 5.11 0 0 0-.47-.03zm.03 2a3.03 3.03 0 0 1 3.03 3.03 3.03 3.03 0 0 1-3.03 3.02 3.03 3.03 0 0 1-3.03-3.02 3.03 3.03 0 0 1 3.03-3.03zm-.22.22a2.81 2.81 0 0 0-2.62 2.62v.38a2.81 2.81 0 0 0 2.62 2.61h.38a2.81 2.81 0 0 0 2.62-2.61v-.38a2.81 2.81 0 0 0-2.62-2.62h-.38zm0 .4v1.1h-.92c.2-.59.54-1 .92-1.1zm.38 0c.38.1.72.51.92 1.1h-.92v-1.1zm-1.24.21c-.18.24-.33.54-.44.89H4.3c.24-.38.59-.7 1-.89zm2.1 0c.41.2.76.5 1 .89h-.56a2.97 2.97 0 0 0-.44-.89zM4.1 5.41h.66c-.05.24-.08.5-.1.75h-.74c.02-.26.08-.51.18-.75zm1.04 0h1.02v.75H5.04c.01-.26.05-.51.1-.75zm1.4 0h1.02c.05.24.09.49.1.75H6.54v-.75zm1.4 0h.66c.1.24.16.49.18.75h-.75a4.45 4.45 0 0 0-.09-.75zM3.92 6.54h.75c0 .26.04.51.09.75H4.1a2.42 2.42 0 0 1-.18-.75zm1.12 0h1.12v.75H5.14a4.19 4.19 0 0 1-.1-.75zm1.5 0h1.12a4.1 4.1 0 0 1-.1.75H6.54v-.75zm1.5 0h.74c-.02.26-.08.51-.18.75h-.66c.05-.24.08-.5.1-.75zM4.28 7.66h.57c.1.35.26.65.44.89a2.45 2.45 0 0 1-1-.89zm.95 0h.92v1.1c-.38-.1-.71-.51-.92-1.1zm1.3 0h.92c-.2.59-.54 1-.92 1.1v-1.1zm1.3 0h.56a2.45 2.45 0 0 1-1 .89c.18-.24.33-.54.44-.89z"/></svg>
